img/calendar.svg

<?xml version="1.0" encoding="UTF-8" standalone="no"?>
<svg width="20px" height="20px" viewBox="0 0 20 20" version="1.1" xmlns="http://www.w3.org/2000/svg" xmlns:xlink="http://www.w3.org/1999/xlink" xmlns:sketch="http://www.bohemiancoding.com/sketch/ns">
    <!-- Generator: Sketch 3.0.4 (8053) - http://www.bohemiancoding.com/sketch -->
    <title>calendar</title>
    <desc>Created with Sketch.</desc>
    <defs></defs>
    <g id="Page-1" stroke="none" stroke-width="1" fill="none" fill-rule="evenodd" sketch:type="MSPage">
        <g id="calendar" sketch:type="MSArtboardGroup" fill="#000000">
            <g id="Group" sketch:type="MSLayerGroup">
                <path d="M15.625,1.875 L15.625,0.625 C15.625,0.2795 15.3455,0 15,0 C14.6545,0 14.375,0.2795 14.375,0.625 L14.375,1.875 L10.625,1.875 L10.625,0.625 C10.625,0.2795 10.3445,0 10,0 C9.6555,0 9.375,0.2795 9.375,0.625 L9.375,1.875 L5.625,1.875 L5.625,0.625 C5.625,0.2795 5.3445,0 5,0 C4.6555,0 4.375,0.2795 4.375,0.625 L4.375,1.875 L1.667,1.875 C0.746,1.875 0,2.6205 0,3.541 L0,18.333 C0,19.254 0.746,20 1.667,20 L18.332,20 C19.252,20 19.998,19.254 19.998,18.333 L19.998,3.541 C19.998,2.6205 19.252,1.875 18.332,1.875 L15.625,1.875 Z M18.748,18.333 C18.748,18.5635 18.5615,18.75 18.332,18.75 L1.667,18.75 C1.437,18.75 1.25,18.5635 1.25,18.333 L1.25,3.541 C1.25,3.3115 1.437,3.125 1.667,3.125 L4.375,3.125 L4.375,4.375 C4.375,4.7205 4.6555,5 5,5 C5.3445,5 5.625,4.7205 5.625,4.375 L5.625,3.125 L9.375,3.125 L9.375,4.375 C9.375,4.7205 9.6555,5 10,5 C10.3445,5 10.625,4.7205 10.625,4.375 L10.625,3.125 L14.375,3.125 L14.375,4.375 C14.375,4.7205 14.6545,5 15,5 C15.3455,5 15.625,4.7205 15.625,4.375 L15.625,3.125 L18.334,3.125 C18.5635,3.125 18.75,3.3115 18.75,3.541 L18.75,18.333" id="Shape" sketch:type="MSShapeGroup"></path>
                <path d="M4.19999981,7.5 L6.69999981,7.5 L6.69999981,9.375 L4.19999981,9.375 L4.19999981,7.5 Z" id="Shape" sketch:type="MSShapeGroup"></path>
                <path d="M4.19999981,10.6999998 L6.69999981,10.6999998 L6.69999981,12.5749998 L4.19999981,12.5749998 L4.19999981,10.6999998 Z" id="Shape" sketch:type="MSShapeGroup"></path>
                <path d="M4.19999981,13.8000002 L6.69999981,13.8000002 L6.69999981,15.6750002 L4.19999981,15.6750002 L4.19999981,13.8000002 Z" id="Shape" sketch:type="MSShapeGroup"></path>
                <path d="M8.75,13.8000002 L11.25,13.8000002 L11.25,15.6750002 L8.75,15.6750002 L8.75,13.8000002 Z" id="Shape" sketch:type="MSShapeGroup"></path>
                <path d="M8.75,10.6999998 L11.25,10.6999998 L11.25,12.5749998 L8.75,12.5749998 L8.75,10.6999998 Z" id="Shape" sketch:type="MSShapeGroup"></path>
                <path d="M8.75,7.5 L11.25,7.5 L11.25,9.375 L8.75,9.375 L8.75,7.5 Z" id="Shape" sketch:type="MSShapeGroup"></path>
                <path d="M13.375,13.8000002 L15.875,13.8000002 L15.875,15.6750002 L13.375,15.6750002 L13.375,13.8000002 Z" id="Shape" sketch:type="MSShapeGroup"></path>
                <path d="M13.375,10.6999998 L15.875,10.6999998 L15.875,12.5749998 L13.375,12.5749998 L13.375,10.6999998 Z" id="Shape" sketch:type="MSShapeGroup"></path>
                <path d="M13.375,7.5 L15.875,7.5 L15.875,9.375 L13.375,9.375 L13.375,7.5 Z" id="Shape" sketch:type="MSShapeGroup"></path>
            </g>
        </g>
    </g>
</svg>

<svg viewBox="0 0 20 20" xmlns="http://www.w3.org/2000/svg"><g fill-rule="evenodd"><path d="m15.625 1.875v-1.25c0-.346-.28-.625-.625-.625-.345 0-.625.28-.625.625v1.25h-3.75v-1.25c0-.346-.281-.625-.625-.625-.345 0-.625.28-.625.625v1.25h-3.75v-1.25c0-.346-.281-.625-.625-.625-.345 0-.625.28-.625.625v1.25h-2.708c-.921 0-1.667.745-1.667 1.666v14.792c0 .921.746 1.667 1.667 1.667h16.665c.92 0 1.666-.746 1.666-1.667v-14.792c0-.921-.746-1.666-1.666-1.666h-2.707m3.123 16.458c0 .231-.187.417-.416.417h-16.665c-.23 0-.417-.186-.417-.417v-14.792c0-.229.187-.416.417-.416h2.708v1.25c0 .346.281.625.625.625.345 0 .625-.279.625-.625v-1.25h3.75v1.25c0 .346.281.625.625.625.345 0 .625-.279.625-.625v-1.25h3.75v1.25c0 .346.28.625.625.625.345 0 .625-.279.625-.625v-1.25h2.709c.23 0 .416.187.416.416v14.792"/><path d="m4.2 7.5h2.5v1.875h-2.5v-1.875"/><path d="m4.2 10.7h2.5v1.875h-2.5v-1.875"/><path d="m4.2 13.8h2.5v1.875h-2.5v-1.875"/><path d="m8.75 13.8h2.5v1.875h-2.5v-1.875"/><path d="m8.75 10.7h2.5v1.875h-2.5v-1.875"/><path d="m8.75 7.5h2.5v1.875h-2.5v-1.875"/><path d="m13.375 13.8h2.5v1.875h-2.5v-1.875"/><path d="m13.375 10.7h2.5v1.875h-2.5v-1.875"/><path d="m13.375 7.5h2.5v1.875h-2.5v-1.875"/></g></svg>
